packages/foundations/assets/icons/functional/images/devices/camera_filled.svg

<svg xmlns="http://www.w3.org/2000/svg" width="32" height="32" fill="none"><path fill="#1A1C1F" fill-rule="evenodd" d="M12.08 6.109c-.147.04-.447.164-.667.274-.351.177-.548.347-1.631 1.416l-1.23 1.214H6.604c-1.768 0-1.985.01-2.361.106-1.008.258-1.797 1.021-2.125 2.054L2 11.547v11.946l.148.418c.351.994 1.067 1.674 2.095 1.991.303.094.81.098 11.757.098s11.454-.004 11.757-.098a3.2 3.2 0 0 0 1.274-.721c.401-.38.634-.74.821-1.27l.148-.418v-5.946c0-5.691-.004-5.96-.101-6.24-.321-.936-.882-1.593-1.712-2.003a3.2 3.2 0 0 0-.661-.237c-.158-.03-1.14-.054-2.182-.054h-1.896l-1.23-1.215c-1.323-1.305-1.597-1.507-2.301-1.69-.439-.114-7.419-.113-7.837.001m5.137 6.05c1.803.438 3.26 1.947 3.67 3.801.129.585.117 1.603-.027 2.193a5.02 5.02 0 0 1-3.393 3.622c-2.726.859-5.646-.812-6.327-3.622-.145-.595-.158-1.613-.028-2.193.404-1.804 1.837-3.329 3.545-3.771a5.45 5.45 0 0 1 2.56-.03m-8.86.911c.363.137.618.521.618.93s-.255.793-.618.93c-.224.084-1.548.073-1.76-.015-.733-.307-.763-1.415-.047-1.793.166-.088.308-.104.927-.106.401-.002.797.023.88.054m6.816 1.056c-.494.142-.872.371-1.285.78-.638.63-.917 1.379-.861 2.309.065 1.095.709 2.028 1.72 2.494.85.392 1.656.392 2.506 0 1.011-.466 1.655-1.399 1.72-2.494.056-.93-.223-1.678-.861-2.31-.625-.619-1.269-.882-2.146-.875a3.5 3.5 0 0 0-.793.096"/></svg>

<svg width="32" height="32" viewBox="0 0 32 32" fill="none" xmlns="http://www.w3.org/2000/svg"><path d="M12.080 6.109 C 11.933 6.149,11.633 6.273,11.413 6.383 C 11.062 6.560,10.865 6.730,9.782 7.799 L 8.552 9.013 6.604 9.013 C 4.836 9.013,4.619 9.023,4.243 9.119 C 3.235 9.377,2.446 10.140,2.118 11.173 L 2.000 11.547 2.000 17.520 L 2.000 23.493 2.148 23.911 C 2.499 24.905,3.215 25.585,4.243 25.902 C 4.546 25.996,5.053 26.000,16.000 26.000 C 26.947 26.000,27.454 25.996,27.757 25.902 C 28.263 25.746,28.689 25.505,29.031 25.181 C 29.432 24.801,29.665 24.441,29.852 23.911 L 30.000 23.493 30.000 17.547 C 30.000 11.856,29.996 11.587,29.899 11.307 C 29.578 10.371,29.017 9.714,28.187 9.304 C 27.981 9.203,27.684 9.096,27.526 9.067 C 27.368 9.037,26.386 9.013,25.344 9.013 L 23.448 9.013 22.218 7.798 C 20.895 6.493,20.621 6.291,19.917 6.108 C 19.478 5.994,12.498 5.995,12.080 6.109 M17.217 12.159 C 19.020 12.597,20.477 14.106,20.887 15.960 C 21.016 16.545,21.004 17.563,20.860 18.153 C 20.441 19.879,19.166 21.240,17.467 21.775 C 14.741 22.634,11.821 20.963,11.140 18.153 C 10.995 17.558,10.982 16.540,11.112 15.960 C 11.516 14.156,12.949 12.631,14.657 12.189 C 15.480 11.976,16.418 11.965,17.217 12.159 M8.357 13.070 C 8.720 13.207,8.975 13.591,8.975 14.000 C 8.975 14.409,8.720 14.793,8.357 14.930 C 8.133 15.014,6.809 15.003,6.597 14.915 C 5.864 14.608,5.834 13.500,6.550 13.122 C 6.716 13.034,6.858 13.018,7.477 13.016 C 7.878 13.014,8.274 13.039,8.357 13.070 M15.173 14.126 C 14.679 14.268,14.301 14.497,13.888 14.906 C 13.250 15.536,12.971 16.285,13.027 17.215 C 13.092 18.310,13.736 19.243,14.747 19.709 C 15.597 20.101,16.403 20.101,17.253 19.709 C 18.264 19.243,18.908 18.310,18.973 17.215 C 19.029 16.285,18.750 15.537,18.112 14.905 C 17.487 14.286,16.843 14.023,15.966 14.030 C 15.689 14.033,15.361 14.072,15.173 14.126 " fill="#1A1C1F" stroke="none" fill-rule="evenodd"></path></svg>
